school/img/country/CU.svg

<svg width="13" height="12" viewBox="0 0 13 12" fill="none" xmlns="http://www.w3.org/2000/svg">
<rect x="0.25" y="0.25" width="12.5" height="11.5" rx="1.75" fill="white" stroke="#F5F5F5" stroke-width="0.5"/>
<mask id="mask0" mask-type="alpha" maskUnits="userSpaceOnUse" x="0" y="0" width="13" height="12">
<rect x="0.25" y="0.25" width="12.5" height="11.5" rx="1.75" fill="white" stroke="white" stroke-width="0.5"/>
</mask>
<g mask="url(#mask0)">
<path fill-rule="evenodd" clip-rule="evenodd" d="M0 2.4H13V0H0V2.4Z" fill="#0B389F"/>
<path fill-rule="evenodd" clip-rule="evenodd" d="M0 7.19999H13V4.79999H0V7.19999Z" fill="#0B389F"/>
<path fill-rule="evenodd" clip-rule="evenodd" d="M0 12H13V9.59998H0V12Z" fill="#0B389F"/>
<path fill-rule="evenodd" clip-rule="evenodd" d="M0 0L6.19048 6L0 12V0Z" fill="#E12A43"/>
<path fill-rule="evenodd" clip-rule="evenodd" d="M2.16668 6.61364L1.43895 7.29445L1.7151 6.18964L0.989186 5.5056L1.88759 5.5036L2.16668 4.40002L2.44578 5.5036L3.34418 5.5056L2.61826 6.18964L2.89442 7.29445L2.16668 6.61364Z" fill="white"/>
</g>
</svg>

<svg width="13" height="12" fill="none" xmlns="http://www.w3.org/2000/svg"><rect x=".25" y=".25" width="12.5" height="11.5" rx="1.75" fill="#fff" stroke="#F5F5F5" stroke-width=".5"/><mask id="a" maskUnits="userSpaceOnUse" x="0" y="0" width="13" height="12"><rect x=".25" y=".25" width="12.5" height="11.5" rx="1.75" fill="#fff" stroke="#fff" stroke-width=".5"/></mask><g mask="url(#a)" fill-rule="evenodd" clip-rule="evenodd"><path d="M0 2.4h13V0H0v2.4zm0 4.8h13V4.8H0v2.4zM0 12h13V9.6H0V12z" fill="#0B389F"/><path d="M0 0l6.19 6L0 12V0z" fill="#E12A43"/><path d="M2.167 6.614l-.728.68.276-1.104-.726-.684.899-.002.279-1.104.279 1.104.898.002-.726.684.276 1.104-.727-.68z" fill="#fff"/></g></svg>
